X: 109
M:2/4
L:1/16
K:Bb
uF2|B2Bc d2cB|Bdfg f2df|bfdf gfdB|cBcd cedc|
|:vBA|(G2{A}G)^F (G2{A}G)F|G2GA B2Bc|(d2{e}d)^c (d2{e}d)^c|d=cBd f2Bd|
fgfd f2df|g^fga g2bg|fdBd cedc|B2df b2:|


